symbols/web/event_note/materialsymbolssharp/event_note_wght600grad200fill1_48px.svg

<svg xmlns="http://www.w3.org/2000/svg" height="48" width="48"><path d="M13.9 27.3v-3.55h20.2v3.55Zm0 8.9v-3.5h14.15v3.5Zm-8.85 8.75V6h6.9V3h3.95v3h16.2V3h3.95v3h6.9v38.95ZM9.2 40.8h29.6V19.35H9.2Z"/></svg>

<svg xmlns="http://www.w3.org/2000/svg" height="48" width="48"><path d="M13.9 27.3V23.75H34.1V27.3ZM13.9 36.2V32.7H28.05V36.2ZM5.05 44.95V6H11.95V3H15.9V6H32.1V3H36.05V6H42.95V44.95ZM9.2 40.8H38.8V19.35H9.2Z"/></svg>
